IMB-X-Files/The-Ambassadors-Assets/65f43207d485843526416825_IMG1.svg

<svg fill="none" height="257" viewBox="0 0 626 257" width="626" xmlns="http://www.w3.org/2000/svg" xmlns:xlink="http://www.w3.org/1999/xlink"><linearGradient id="a"><stop offset="0" stop-color="#d9d9d9"/><stop offset=".640625" stop-color="#d9d9d9" stop-opacity=".25"/><stop offset="1" stop-color="#d9d9d9" stop-opacity="0"/></linearGradient><linearGradient id="b" gradientUnits="userSpaceOnUse" x1="75" x2="75" xlink:href="#a" y1="112" y2="257"/><linearGradient id="c" gradientUnits="userSpaceOnUse" x1="-.000001" x2="150" y1="257" y2="112"><stop offset="0" stop-color="#10b981"/><stop offset="1" stop-color="#d9f99d"/></linearGradient><linearGradient id="d" gradientUnits="userSpaceOnUse" x1="19" x2="134.663" y1="240" y2="131.92"><stop offset="0" stop-color="#d9f99d"/><stop offset="1" stop-color="#10b981"/></linearGradient><linearGradient id="e" gradientUnits="userSpaceOnUse" x1="234" x2="234" xlink:href="#a" y1="112" y2="257"/><linearGradient id="f" gradientUnits="userSpaceOnUse" x1="159" x2="309" y1="257" y2="112"><stop offset="0" stop-color="#f97316"/><stop offset="1" stop-color="#fef08a"/></linearGradient><linearGradient id="g"><stop offset="0" stop-color="#ddd6fe"/><stop offset="1" stop-color="#9333ea"/></linearGradient><linearGradient id="h" gradientUnits="userSpaceOnUse" x1="181" x2="296.663" xlink:href="#g" y1="240" y2="131.92"/><linearGradient id="i" gradientUnits="userSpaceOnUse" x1="181" x2="296.663" y1="240" y2="131.92"><stop offset="0" stop-color="#fef08a"/><stop offset=".588542" stop-color="#f97316"/><stop offset="1" stop-color="#f97316"/></linearGradient><linearGradient id="j" gradientUnits="userSpaceOnUse" x1="393" x2="393" xlink:href="#a" y1="112" y2="257"/><linearGradient id="k" gradientUnits="userSpaceOnUse" x1="318" x2="468" y1="257" y2="112"><stop offset="0" stop-color="#3b82f6"/><stop offset="1" stop-color="#e0f2fe"/></linearGradient><linearGradient id="l" gradientUnits="userSpaceOnUse" x1="392.568" x2="475.185" y1="207" y2="129.8"><stop offset="0" stop-color="#e0f2fe"/><stop offset="1" stop-color="#3b82f6"/></linearGradient><linearGradient id="m" gradientUnits="userSpaceOnUse" x1="552" x2="552" xlink:href="#a" y1="112" y2="257"/><linearGradient id="n" gradientUnits="userSpaceOnUse" x1="477" x2="627" y1="257" y2="112"><stop offset="0" stop-color="#9333ea"/><stop offset="1" stop-color="#ddd6fe"/></linearGradient><linearGradient id="o" gradientUnits="userSpaceOnUse" x1="499" x2="614.663" xlink:href="#g" y1="240" y2="131.92"/><clipPath id="p"><path d="m0 0h626v257h-626z"/></clipPath><clipPath id="q"><path d="m217 32h192v32h-192z"/></clipPath><mask id="r" height="145" maskUnits="userSpaceOnUse" width="150" x="0" y="112"><rect fill="url(#b)" height="145" rx="8" width="150" y="112"/></mask><mask id="s" height="145" maskUnits="userSpaceOnUse" width="150" x="159" y="112"><rect fill="url(#e)" height="145" rx="8" width="150" x="159" y="112"/></mask><mask id="t" height="145" maskUnits="userSpaceOnUse" width="150" x="318" y="112"><rect fill="url(#j)" height="145" rx="8" width="150" x="318" y="112"/></mask><mask id="u" height="145" maskUnits="userSpaceOnUse" width="150" x="477" y="112"><rect fill="url(#m)" height="145" rx="8" width="150" x="477" y="112"/></mask><g clip-path="url(#p)"><g clip-path="url(#q)"><path clip-rule="evenodd" d="m268.329 32-16.398 32h-15.371l6.836-13.2741h-.317c-5.611 7.3482-14.067 12.1679-26.079 13.2741v-13.0765s7.705-.4346 12.21-5.2149h-12.21v-13.7086h13.711v11.2988h.317l5.611-11.2988h10.392v11.2198h.316l5.769-11.2198z" fill="#146ef5" fill-rule="evenodd"/><g fill="#fff"><path d="m357.592 60.4841h4.425v-25.363h-4.425z"/><path clip-rule="evenodd" d="m333.251 60.2075c.948.3951 1.936.5926 2.924.5926 1.66 0 3.122-.3951 4.386-1.1852 1.304-.7901 2.292-1.8963 3.003-3.3185.712-1.4222 1.067-3.0025 1.067-4.8198 0-1.8172-.355-3.3975-1.106-4.8197s-1.739-2.4889-3.043-3.279-2.805-1.1852-4.465-1.1457c-1.067 0-2.055.1975-3.043.6321-.987.3951-1.778.9877-2.41 1.7383-.039.0395-.079.1185-.158.158v-9.6395h-4.426v25.3234h4.387v-2.3703c.118.158.237.2765.355.395.711.7507 1.541 1.3433 2.529 1.7383zm4.505-4.1086c-.712.4345-1.541.6716-2.49.6716-.909 0-1.778-.2371-2.529-.6716-.75-.4741-1.383-1.1062-1.817-1.8963-.435-.7901-.672-1.6988-.672-2.726 0-1.0271.198-1.9358.632-2.7259.435-.7901 1.067-1.4222 1.818-1.8963.751-.4345 1.62-.6716 2.529-.6716s1.738.1976 2.489.6321c.751.4346 1.304 1.0667 1.699 1.8568s.593 1.6988.593 2.7654c0 1.0272-.198 1.9358-.593 2.7655-.355.8296-.909 1.4617-1.659 1.8963z" fill-rule="evenodd"/><path d="m274.73 36.6616h5.058l4.505 16.4741 4.821-16.4741h4.188l5.216 16.158 4.347-16.158h4.623l-6.836 23.8222h-4.347l-5.295-15.8024-4.86 15.8024h-4.386z"/><path clip-rule="evenodd" d="m314.916 60.8789c-1.778 0-3.358-.395-4.741-1.1456-1.423-.7902-2.49-1.8963-3.319-3.3186-.791-1.4222-1.186-3.0419-1.186-4.8197s.395-3.358 1.225-4.7803c.83-1.4222 1.936-2.5284 3.319-3.3185 1.423-.7901 2.964-1.1852 4.702-1.1852 1.937 0 3.636.4346 5.098 1.3037 1.462.8692 2.568 2.0939 3.279 3.6741.751 1.5803.988 3.3975.791 5.4124h-13.87c.04.8296.237 1.5407.593 2.2123.395.7506.988 1.3037 1.699 1.6988.751.395 1.541.6321 2.45.6321.672 0 1.343-.1185 1.936-.3556.593-.237 1.107-.5531 1.502-.9481.434-.3951.711-.8692.909-1.3432h4.623c-.277 1.2246-.83 2.3308-1.699 3.3185-.83.9481-1.897 1.6987-3.162 2.2518-1.224.4741-2.607.7506-4.149.7111zm-4.07-12.6814c-.276.4345-.434.9481-.553 1.4617h9.207c-.079-.6716-.276-1.2642-.593-1.7778-.395-.6321-.908-1.1457-1.58-1.4617-.672-.3556-1.423-.5531-2.252-.5531-.909 0-1.7.1975-2.45.6321-.751.3951-1.344.9481-1.779 1.6988z" fill-rule="evenodd"/><path d="m347.911 42.6271c0-1.4618.316-2.726.988-3.8321.671-1.1457 1.58-2.0148 2.766-2.6469 1.185-.6321 2.608-.9482 4.188-.9877v3.9506c-.751 0-1.383.158-1.896.4741-.514.2765-.909.7111-1.186 1.2642-.276.5136-.395 1.1062-.435 1.7778h3.438v3.7531h-3.438v14.1037h-4.425v-14.1037h-2.845v-3.7531z"/><path clip-rule="evenodd" d="m373.24 60.8395c-1.818 0-3.399-.395-4.821-1.1851-1.423-.7902-2.529-1.8963-3.319-3.3186-.791-1.4222-1.186-3.0024-1.186-4.8197s.395-3.3975 1.186-4.8198c.79-1.4222 1.936-2.5284 3.319-3.3185 1.422-.7901 3.042-1.1852 4.821-1.1852 1.817 0 3.437.3951 4.86 1.1852 1.422.7901 2.568 1.8963 3.359 3.3185.79 1.4223 1.185 3.042 1.224 4.8198 0 1.7778-.434 3.3975-1.224 4.8197-.791 1.4223-1.897 2.4889-3.32 3.3186-1.462.7901-3.082 1.1851-4.899 1.1851zm0-4.0296c.948 0 1.778-.1975 2.528-.6321.751-.4346 1.304-1.0667 1.7-1.8568.395-.7901.592-1.6987.592-2.7259s-.197-1.9358-.592-2.7654c-.396-.7902-.949-1.4223-1.7-1.8568-.75-.4346-1.58-.6716-2.528-.6716-.949 0-1.779.237-2.49.6716-.711.4345-1.264 1.0271-1.699 1.8568-.395.7901-.593 1.6987-.593 2.7654 0 1.0272.198 1.9358.593 2.7259s.988 1.4222 1.699 1.8568c.711.3951 1.541.6321 2.49.6321z" fill-rule="evenodd"/><path d="m387.425 42.6272h-4.939l5.334 17.8173h4.307l3.517-11.3778 3.794 11.3778h4.228l5.334-17.8173h-4.465l-3.003 11.1012-3.359-11.1012h-4.307l-3.319 11.3383z"/></g></g><g mask="url(#r)"><path d="m0 112h150v145h-150z" fill="url(#c)"/><rect fill="url(#d)" height="112" rx="56" width="112" x="19" y="128"/></g><g mask="url(#s)"><path d="m159 112h150v145h-150z" fill="url(#f)"/><path d="m237 128 48.497 28v56l-48.497 28-48.497-28v-56z" fill="#d9d9d9"/><path d="m237 128 48.497 28v56l-48.497 28-48.497-28v-56z" fill="url(#h)"/><path d="m237 128 48.497 28v56l-48.497 28-48.497-28v-56z" fill="url(#i)"/></g><g mask="url(#t)"><path d="m318 112h150v145h-150z" fill="url(#k)"/><path d="m392.568 127h80v80h-80z" fill="#d9d9d9" transform="matrix(.70710678 .70710678 -.70710678 .70710678 204.783066 -240.390056)"/><path d="m392.568 127h80v80h-80z" fill="url(#l)" transform="matrix(.70710678 .70710678 -.70710678 .70710678 204.783066 -240.390056)"/></g><g mask="url(#u)"><path d="m477 112h150v145h-150z" fill="url(#n)"/><path d="m555 128 53.259 38.695-20.343 62.61h-65.832l-20.343-62.61z" fill="#d9d9d9"/><path d="m555 128 53.259 38.695-20.343 62.61h-65.832l-20.343-62.61z" fill="url(#o)"/></g></g></svg>

<svg width="626" height="257" viewBox="0 0 626 257" fill="none" xmlns="http://www.w3.org/2000/svg">
    <g clip-path="url(#clip0_314_887)">
        <g clip-path="url(#clip1_314_887)">
            <path fill-rule="evenodd" clip-rule="evenodd"
                d="M268.329 32L251.931 64H236.56L243.396 50.7259H243.079C237.468 58.0741 229.012 62.8938 217 64V50.9235C217 50.9235 224.705 50.4889 229.21 45.7086H217V32H230.711V43.2988H231.028L236.639 32H247.031V43.2198H247.347L253.116 32H268.329Z"
                fill="#146EF5" />
            <path d="M357.592 60.4841H362.017V35.1211H357.592V60.4841Z" fill="white" />
            <path fill-rule="evenodd" clip-rule="evenodd"
                d="M333.251 60.2075C334.199 60.6026 335.187 60.8001 336.175 60.8001C337.835 60.8001 339.297 60.405 340.561 59.6149C341.865 58.8248 342.853 57.7186 343.564 56.2964C344.276 54.8742 344.631 53.2939 344.631 51.4766C344.631 49.6594 344.276 48.0791 343.525 46.6569C342.774 45.2347 341.786 44.168 340.482 43.3779C339.178 42.5878 337.677 42.1927 336.017 42.2322C334.95 42.2322 333.962 42.4297 332.974 42.8643C331.987 43.2594 331.196 43.852 330.564 44.6026C330.525 44.6421 330.485 44.7211 330.406 44.7606V35.1211H325.98V60.4445H330.367V58.0742C330.485 58.2322 330.604 58.3507 330.722 58.4692C331.433 59.2199 332.263 59.8125 333.251 60.2075ZM337.756 56.0989C337.044 56.5334 336.215 56.7705 335.266 56.7705C334.357 56.7705 333.488 56.5334 332.737 56.0989C331.987 55.6248 331.354 54.9927 330.92 54.2026C330.485 53.4125 330.248 52.5038 330.248 51.4766C330.248 50.4495 330.446 49.5408 330.88 48.7507C331.315 47.9606 331.947 47.3285 332.698 46.8544C333.449 46.4199 334.318 46.1828 335.227 46.1828C336.136 46.1828 336.965 46.3804 337.716 46.8149C338.467 47.2495 339.02 47.8816 339.415 48.6717C339.81 49.4618 340.008 50.3705 340.008 51.4371C340.008 52.4643 339.81 53.3729 339.415 54.2026C339.06 55.0322 338.506 55.6643 337.756 56.0989Z"
                fill="white" />
            <path
                d="M274.73 36.6616H279.788L284.293 53.1357L289.114 36.6616H293.302L298.518 52.8196L302.865 36.6616H307.488L300.652 60.4838H296.305L291.01 44.6814L286.15 60.4838H281.764L274.73 36.6616Z"
                fill="white" />
            <path fill-rule="evenodd" clip-rule="evenodd"
                d="M314.916 60.8789C313.138 60.8789 311.558 60.4839 310.175 59.7333C308.752 58.9431 307.685 57.837 306.856 56.4147C306.065 54.9925 305.67 53.3728 305.67 51.595C305.67 49.8172 306.065 48.237 306.895 46.8147C307.725 45.3925 308.831 44.2863 310.214 43.4962C311.637 42.7061 313.178 42.311 314.916 42.311C316.853 42.311 318.552 42.7456 320.014 43.6147C321.476 44.4839 322.582 45.7086 323.293 47.2888C324.044 48.8691 324.281 50.6863 324.084 52.7012H310.214C310.254 53.5308 310.451 54.2419 310.807 54.9135C311.202 55.6641 311.795 56.2172 312.506 56.6123C313.257 57.0073 314.047 57.2444 314.956 57.2444C315.628 57.2444 316.299 57.1259 316.892 56.8888C317.485 56.6518 317.999 56.3357 318.394 55.9407C318.828 55.5456 319.105 55.0715 319.303 54.5975H323.926C323.649 55.8221 323.096 56.9283 322.227 57.916C321.397 58.8641 320.33 59.6147 319.065 60.1678C317.841 60.6419 316.458 60.9184 314.916 60.8789ZM310.846 48.1975C310.57 48.632 310.412 49.1456 310.293 49.6592H319.5C319.421 48.9876 319.224 48.395 318.907 47.8814C318.512 47.2493 317.999 46.7357 317.327 46.4197C316.655 46.0641 315.904 45.8666 315.075 45.8666C314.166 45.8666 313.375 46.0641 312.625 46.4987C311.874 46.8938 311.281 47.4468 310.846 48.1975Z"
                fill="white" />
            <path
                d="M347.911 42.6271C347.911 41.1653 348.227 39.9011 348.899 38.795C349.57 37.6493 350.479 36.7802 351.665 36.1481C352.85 35.516 354.273 35.1999 355.853 35.1604V39.111C355.102 39.111 354.47 39.269 353.957 39.5851C353.443 39.8616 353.048 40.2962 352.771 40.8493C352.495 41.3629 352.376 41.9555 352.336 42.6271H355.774V46.3802H352.336V60.4839H347.911V46.3802H345.066V42.6271H347.911Z"
                fill="white" />
            <path fill-rule="evenodd" clip-rule="evenodd"
                d="M373.24 60.8395C371.422 60.8395 369.841 60.4445 368.419 59.6544C366.996 58.8642 365.89 57.7581 365.1 56.3358C364.309 54.9136 363.914 53.3334 363.914 51.5161C363.914 49.6988 364.309 48.1186 365.1 46.6963C365.89 45.2741 367.036 44.1679 368.419 43.3778C369.841 42.5877 371.461 42.1926 373.24 42.1926C375.057 42.1926 376.677 42.5877 378.1 43.3778C379.522 44.1679 380.668 45.2741 381.459 46.6963C382.249 48.1186 382.644 49.7383 382.683 51.5161C382.683 53.2939 382.249 54.9136 381.459 56.3358C380.668 57.7581 379.562 58.8247 378.139 59.6544C376.677 60.4445 375.057 60.8395 373.24 60.8395ZM373.24 56.8099C374.188 56.8099 375.018 56.6124 375.768 56.1778C376.519 55.7432 377.072 55.1111 377.468 54.321C377.863 53.5309 378.06 52.6223 378.06 51.5951C378.06 50.5679 377.863 49.6593 377.468 48.8297C377.072 48.0395 376.519 47.4074 375.768 46.9729C375.018 46.5383 374.188 46.3013 373.24 46.3013C372.291 46.3013 371.461 46.5383 370.75 46.9729C370.039 47.4074 369.486 48 369.051 48.8297C368.656 49.6198 368.458 50.5284 368.458 51.5951C368.458 52.6223 368.656 53.5309 369.051 54.321C369.446 55.1111 370.039 55.7432 370.75 56.1778C371.461 56.5729 372.291 56.8099 373.24 56.8099Z"
                fill="white" />
            <path
                d="M387.425 42.6272H382.486L387.82 60.4445H392.127L395.644 49.0667L399.438 60.4445H403.666L409 42.6272H404.535L401.532 53.7284L398.173 42.6272H393.866L390.547 53.9655L387.425 42.6272Z"
                fill="white" />
        </g>
        <mask id="mask0_314_887" style="mask-type:alpha" maskUnits="userSpaceOnUse" x="0" y="112" width="150"
            height="145">
            <rect y="112" width="150" height="145" rx="8" fill="url(#paint0_linear_314_887)" />
        </mask>
        <g mask="url(#mask0_314_887)">
            <rect y="112" width="150" height="145" fill="url(#paint1_linear_314_887)" />
            <rect x="19" y="128" width="112" height="112" rx="56" fill="url(#paint2_linear_314_887)" />
        </g>
        <mask id="mask1_314_887" style="mask-type:alpha" maskUnits="userSpaceOnUse" x="159" y="112" width="150"
            height="145">
            <rect x="159" y="112" width="150" height="145" rx="8" fill="url(#paint3_linear_314_887)" />
        </mask>
        <g mask="url(#mask1_314_887)">
            <rect x="159" y="112" width="150" height="145" fill="url(#paint4_linear_314_887)" />
            <path d="M237 128L285.497 156V212L237 240L188.503 212V156L237 128Z" fill="#D9D9D9" />
            <path d="M237 128L285.497 156V212L237 240L188.503 212V156L237 128Z" fill="url(#paint5_linear_314_887)" />
            <path d="M237 128L285.497 156V212L237 240L188.503 212V156L237 128Z" fill="url(#paint6_linear_314_887)" />
        </g>
        <mask id="mask2_314_887" style="mask-type:alpha" maskUnits="userSpaceOnUse" x="318" y="112" width="150"
            height="145">
            <rect x="318" y="112" width="150" height="145" rx="8" fill="url(#paint7_linear_314_887)" />
        </mask>
        <g mask="url(#mask2_314_887)">
            <rect x="318" y="112" width="150" height="145" fill="url(#paint8_linear_314_887)" />
            <rect x="392.568" y="127" width="80" height="80" transform="rotate(45 392.568 127)" fill="#D9D9D9" />
            <rect x="392.568" y="127" width="80" height="80" transform="rotate(45 392.568 127)"
                fill="url(#paint9_linear_314_887)" />
        </g>
        <mask id="mask3_314_887" style="mask-type:alpha" maskUnits="userSpaceOnUse" x="477" y="112" width="150"
            height="145">
            <rect x="477" y="112" width="150" height="145" rx="8" fill="url(#paint10_linear_314_887)" />
        </mask>
        <g mask="url(#mask3_314_887)">
            <rect x="477" y="112" width="150" height="145" fill="url(#paint11_linear_314_887)" />
            <path d="M555 128L608.259 166.695L587.916 229.305H522.084L501.741 166.695L555 128Z" fill="#D9D9D9" />
            <path d="M555 128L608.259 166.695L587.916 229.305H522.084L501.741 166.695L555 128Z"
                fill="url(#paint12_linear_314_887)" />
        </g>
    </g>
    <defs>
        <linearGradient id="paint0_linear_314_887" x1="75" y1="112" x2="75" y2="257" gradientUnits="userSpaceOnUse">
            <stop stop-color="#D9D9D9" />
            <stop offset="0.640625" stop-color="#D9D9D9" stop-opacity="0.25" />
            <stop offset="1" stop-color="#D9D9D9" stop-opacity="0" />
        </linearGradient>
        <linearGradient id="paint1_linear_314_887" x1="-5.58794e-07" y1="257" x2="150" y2="112"
            gradientUnits="userSpaceOnUse">
            <stop stop-color="#10B981" />
            <stop offset="1" stop-color="#D9F99D" />
        </linearGradient>
        <linearGradient id="paint2_linear_314_887" x1="19" y1="240" x2="134.663" y2="131.92"
            gradientUnits="userSpaceOnUse">
            <stop stop-color="#D9F99D" />
            <stop offset="1" stop-color="#10B981" />
        </linearGradient>
        <linearGradient id="paint3_linear_314_887" x1="234" y1="112" x2="234" y2="257" gradientUnits="userSpaceOnUse">
            <stop stop-color="#D9D9D9" />
            <stop offset="0.640625" stop-color="#D9D9D9" stop-opacity="0.25" />
            <stop offset="1" stop-color="#D9D9D9" stop-opacity="0" />
        </linearGradient>
        <linearGradient id="paint4_linear_314_887" x1="159" y1="257" x2="309" y2="112" gradientUnits="userSpaceOnUse">
            <stop stop-color="#F97316" />
            <stop offset="1" stop-color="#FEF08A" />
        </linearGradient>
        <linearGradient id="paint5_linear_314_887" x1="181" y1="240" x2="296.663" y2="131.92"
            gradientUnits="userSpaceOnUse">
            <stop stop-color="#DDD6FE" />
            <stop offset="1" stop-color="#9333EA" />
        </linearGradient>
        <linearGradient id="paint6_linear_314_887" x1="181" y1="240" x2="296.663" y2="131.92"
            gradientUnits="userSpaceOnUse">
            <stop stop-color="#FEF08A" />
            <stop offset="0.588542" stop-color="#F97316" />
            <stop offset="1" stop-color="#F97316" />
        </linearGradient>
        <linearGradient id="paint7_linear_314_887" x1="393" y1="112" x2="393" y2="257" gradientUnits="userSpaceOnUse">
            <stop stop-color="#D9D9D9" />
            <stop offset="0.640625" stop-color="#D9D9D9" stop-opacity="0.25" />
            <stop offset="1" stop-color="#D9D9D9" stop-opacity="0" />
        </linearGradient>
        <linearGradient id="paint8_linear_314_887" x1="318" y1="257" x2="468" y2="112" gradientUnits="userSpaceOnUse">
            <stop stop-color="#3B82F6" />
            <stop offset="1" stop-color="#E0F2FE" />
        </linearGradient>
        <linearGradient id="paint9_linear_314_887" x1="392.568" y1="207" x2="475.185" y2="129.8"
            gradientUnits="userSpaceOnUse">
            <stop stop-color="#E0F2FE" />
            <stop offset="1" stop-color="#3B82F6" />
        </linearGradient>
        <linearGradient id="paint10_linear_314_887" x1="552" y1="112" x2="552" y2="257" gradientUnits="userSpaceOnUse">
            <stop stop-color="#D9D9D9" />
            <stop offset="0.640625" stop-color="#D9D9D9" stop-opacity="0.25" />
            <stop offset="1" stop-color="#D9D9D9" stop-opacity="0" />
        </linearGradient>
        <linearGradient id="paint11_linear_314_887" x1="477" y1="257" x2="627" y2="112" gradientUnits="userSpaceOnUse">
            <stop stop-color="#9333EA" />
            <stop offset="1" stop-color="#DDD6FE" />
        </linearGradient>
        <linearGradient id="paint12_linear_314_887" x1="499" y1="240" x2="614.663" y2="131.92"
            gradientUnits="userSpaceOnUse">
            <stop stop-color="#DDD6FE" />
            <stop offset="1" stop-color="#9333EA" />
        </linearGradient>
        <clipPath id="clip0_314_887">
            <rect width="626" height="257" fill="white" />
        </clipPath>
        <clipPath id="clip1_314_887">
            <rect width="192" height="32" fill="white" transform="translate(217 32)" />
        </clipPath>
    </defs>
</svg>
